www/assets/icons/heart_broken.svg

<svg xmlns="http://www.w3.org/2000/svg" width="24" height="24" viewBox="0 0 24 24" fill='currentColor'><path d="M16.5 3c-.96 0-1.9.25-2.73.69L12 9h3l-3 10 1-9h-3l1.54-5.39C10.47 3.61 9.01 3 7.5 3 4.42 3 2 5.42 2 8.5c0 4.13 4.16 7.18 10 12.5 5.47-4.94 10-8.26 10-12.5C22 5.42 19.58 3 16.5 3"/></svg>

<svg width="24" height="24" viewBox="0 0 24 24" xmlns="http://www.w3.org/2000/svg" fill='currentColor'><path d="M16.5 3C15.54 3 14.6 3.25 13.77 3.69L12 9H15L12 19L13 10H10L11.54 4.61C10.47 3.61 9.01 3 7.5 3C4.42 3 2 5.42 2 8.5C2 12.63 6.16 15.68 12 21C17.47 16.06 22 12.74 22 8.5C22 5.42 19.58 3 16.5 3Z"/></svg>
